src/assets/images/logos/spacetime-icon.svg

<svg height="40" viewBox="0 0 40 40" width="40" xmlns="http://www.w3.org/2000/svg" xmlns:xlink="http://www.w3.org/1999/xlink"><mask id="a" fill="#fff"><path d="m28.3976056 30.8510121 4.1770965 4.1774437c-2.9895893 2.5058415-6.7346443 4.135454-10.8395604 4.4973973v-5.9149798c2.4909196-.3144014 4.7725853-1.2950838 6.6624639-2.7598612zm-10.1327473-30.37658758v5.91463274c-2.4905726.31474841-4.7722383 1.29508386-6.6621168 2.75986119l-4.17744364-4.17744361c2.98993634-2.5054945 6.73499134-4.13545402 10.83956044-4.49705032zm14.3098785 4.49722383-4.1770965 4.17744361c-1.8898786-1.46477733-4.1718913-2.4454598-6.6624639-2.75986119v-5.91463274c4.1049161.3615963 7.8499711 1.99120879 10.8395604 4.49705032zm1.0359977 13.29338345c-.3144014-2.4909196-1.2947368-4.7725853-2.7595141-6.6624638l4.1770965-4.17744365c2.5061886 2.98993635 4.1354541 6.73499135 4.4973974 10.83990745zm0 3.470214h5.9149798c-.3619433 4.1045691-1.9912088 7.8499711-4.4973974 10.8395604l-4.1770965-4.1774436c1.4647773-1.8898785 2.4451127-4.1715442 2.7595141-6.6621168zm-27.22153843-3.470214h-5.91497976c.36194332-4.1049161 1.99155581-7.8499711 4.49739734-10.83990745l4.17744361 4.17709655c-1.46512435 1.8902256-2.4454598 4.1718913-2.75986119 6.6628109zm1.03599768 16.7632851 4.17744365-4.1770965c1.8895315 1.4647773 4.1715442 2.4451127 6.6621168 2.7598612v5.9146327c-4.1045691-.3619433-7.8496241-1.9915558-10.83956045-4.4973974zm1.72389821-6.6306766-4.17744361 4.1774436c-2.50584153-2.9899364-4.13545402-6.7353384-4.49739734-10.8399075h5.91497976c.31440139 2.4909196 1.29473684 4.7725853 2.75986119 6.6624639z" fill="none"/></mask><g fill="none" fill-rule="evenodd"><path d="m0 0h40v40h-40z"/><g fill="#fff" fill-rule="evenodd" mask="url(#a)"><path d="m0 0h40v40h-40z"/></g></g></svg>

<?xml version="1.0" encoding="UTF-8"?>
<svg width="40px" height="40px" viewBox="0 0 40 40" version="1.1" xmlns="http://www.w3.org/2000/svg" xmlns:xlink="http://www.w3.org/1999/xlink">
    <!-- Generator: Sketch 49.3 (51167) - http://www.bohemiancoding.com/sketch -->
    <title>spacetime-icon</title>
    <desc>Created with Sketch.</desc>
    <defs>
        <path d="M28.3976056,30.8510121 L32.5747021,35.0284558 C29.5851128,37.5342973 25.8400578,39.1639098 21.7351417,39.5258531 L21.7351417,33.6108733 C24.2260613,33.2964719 26.507727,32.3157895 28.3976056,30.8510121 Z M18.2648583,0.474424523 L18.2648583,6.38905726 C15.7742857,6.70380567 13.49262,7.68414112 11.6027415,9.14891845 L7.42529786,4.97147484 C10.4152342,2.46598034 14.1602892,0.836020821 18.2648583,0.474424523 Z M32.5747368,4.97164835 L28.3976403,9.14909196 C26.5077617,7.68431463 24.225749,6.70363216 21.7351764,6.38923077 L21.7351764,0.474598034 C25.8400925,0.836194332 29.5851475,2.46580682 32.5747368,4.97164835 Z M33.6107345,18.2650318 C33.2963331,15.7741122 32.3159977,13.4924465 30.8512204,11.602568 L35.0283169,7.42512435 C37.5345055,10.4150607 39.163771,14.1601157 39.5257143,18.2650318 L33.6107345,18.2650318 Z M33.6107345,21.7352458 L39.5257143,21.7352458 C39.163771,25.8398149 37.5345055,29.5852169 35.0283169,32.5748062 L30.8512204,28.3973626 C32.3159977,26.5074841 33.2963331,24.2258184 33.6107345,21.7352458 Z M6.38919607,18.2650318 L0.47421631,18.2650318 C0.83615963,14.1601157 2.46577212,10.4150607 4.97161365,7.42512435 L9.14905726,11.6022209 C7.68393291,13.4924465 6.70359746,15.7741122 6.38919607,18.2650318 Z M7.42519375,35.0283169 L11.6026374,30.8512204 C13.4921689,32.3159977 15.7741816,33.2963331 18.2647542,33.6110816 L18.2647542,39.5257143 C14.1601851,39.163771 10.4151301,37.5341585 7.42519375,35.0283169 Z M9.14909196,28.3976403 L4.97164835,32.5750839 C2.46580682,29.5851475 0.836194332,25.8397455 0.474251012,21.7351764 L6.38923077,21.7351764 C6.70363216,24.226096 7.68396761,26.5077617 9.14909196,28.3976403 Z" id="path-1"></path>
    </defs>
    <g id="spacetime-icon" stroke="none" stroke-width="1" fill="none" fill-rule="evenodd">
        <g id="Brand/Logo/Icon">
            <rect id="#" x="0" y="0" width="40" height="40"></rect>
            <g id="Icon" stroke-width="1" fill-rule="evenodd">
                <mask id="mask-2" fill="white">
                    <use xlink:href="#path-1"></use>
                </mask>
                <g id="Mask"></g>
                <g id="Brand/Color/White" mask="url(#mask-2)" fill="#FFFFFF">
                    <rect id="Color" x="0" y="0" width="40" height="40"></rect>
                </g>
            </g>
        </g>
    </g>
</svg>
